package/converter/svg/thin/tally.svg

<svg xmlns="http://www.w3.org/2000/svg" viewBox="0 0 640 512"><!-- Font Awesome Pro 6.0.0-alpha2 by @fontawesome - https://fontawesome.com License - https://fontawesome.com/license (Commercial License) --><path d="M639.591 149.469C640.981 153.656 638.716 158.187 634.528 159.594L519.998 197.771V472C519.998 476.422 516.42 480 511.998 480C507.576 480 503.998 476.422 503.998 472V203.104L391.999 240.438V472C391.999 476.422 388.421 480 383.999 480S376 476.422 376 472V245.771L264.001 283.104V472C264.001 476.422 260.423 480 256.001 480C251.579 480 248.001 476.422 248.001 472V288.438L136.002 325.771V472C136.002 476.422 132.424 480 128.002 480C123.58 480 120.002 476.422 120.002 472V331.104L10.534 367.594C9.691 367.875 8.847 368 8.003 368C4.659 368 1.534 365.875 0.409 362.531C-0.981 358.344 1.284 353.813 5.472 352.406L120.002 314.229V40C120.002 35.578 123.58 32 128.002 32C132.424 32 136.002 35.578 136.002 40V308.896L248.001 271.562V40C248.001 35.578 251.579 32 256.001 32C260.423 32 264.001 35.578 264.001 40V266.229L376 228.896V40C376 35.578 379.578 32 383.999 32S391.999 35.578 391.999 40V223.562L503.998 186.229V40C503.998 35.578 507.576 32 511.998 32C516.42 32 519.998 35.578 519.998 40V180.896L629.466 144.406C633.669 143.031 638.169 145.281 639.591 149.469Z"/></svg>

<svg xmlns="http://www.w3.org/2000/svg" viewBox="0 0 640 512"><!--! Font Awesome Pro 6.6.0 by @fontawesome - https://fontawesome.com License - https://fontawesome.com/license (Commercial License) Copyright 2024 Fonticons, Inc. --><path d="M128 32c4.4 0 8 3.6 8 8l0 268.9 112-37.3L248 40c0-4.4 3.6-8 8-8s8 3.6 8 8l0 226.2 112-37.3L376 40c0-4.4 3.6-8 8-8s8 3.6 8 8l0 183.6 112-37.3L504 40c0-4.4 3.6-8 8-8s8 3.6 8 8l0 140.9 85.5-28.5c4.2-1.4 8.7 .9 10.1 5.1s-.9 8.7-5.1 10.1L520 197.8 520 472c0 4.4-3.6 8-8 8s-8-3.6-8-8l0-268.9L392 240.4 392 472c0 4.4-3.6 8-8 8s-8-3.6-8-8l0-226.2L264 283.1 264 472c0 4.4-3.6 8-8 8s-8-3.6-8-8l0-183.6L136 325.8 136 472c0 4.4-3.6 8-8 8s-8-3.6-8-8l0-140.9L34.5 359.6c-4.2 1.4-8.7-.9-10.1-5.1s.9-8.7 5.1-10.1L120 314.2 120 40c0-4.4 3.6-8 8-8z"/></svg>
